X:1
T:Title
%%score { ( 1 3 ) | 2 }
L:1/8
M:3/4
K:Db
V:1 treble nm="Grand Piano"
V:3 treble 
V:2 bass 
V:1
 z2 z2[Q:1/4=108] [FA]2 | [FA]2 [DF]2 [EG]2 | [FA]4 [Fd][Fd] | [Bd]2 [Ac]2 [GB]2 | [FA]4 [FA]2 | %5
 [CA]2 [CE]2 [DF]2 | [CG]2 [CF]2 [CE]2 | [DF]4 [FA]2 | [FA]2 [DF]2 [EG]2 | [FA]4 [FA][FA] | %10
 B2 G2 B2 |[M:2/4] [Bd]4 |[M:1/4] [Ac]B |[M:3/4] A2 F2 [DA]2 | [CG]2 [A,CF]2[K:bass] [G,CE]2 | %15
[M:2/4] [F,D]4 |[M:6/8] z2[K:treble] d- d3 | z2 B- B3 | z2 e- e3 | z2 =c- c3 | z2 d- d3 | %21
 z2 A- A3 | z2 G- G3 |[M:5/8] [A,CF][K:bass][G,CE] [F,D]3- | [F,D]2 z z2 |] %25
V:2
 z2 z2 [D,D]2 | [D,D]2 [D,A,]2 [D,A,]2 | [D,D]4 [D,D][D,D] | [G,D]2 [G,D]2 [G,D]2 | %4
 [D,D]4 [D,A,]2 | [A,,A,]2 [A,,A,]2 [A,,A,]2 | [A,,E,]2 [A,,A,]2 [A,,A,]2 | [D,A,]4 [D,D]2 | %8
 [D,D]2 [D,A,]2 [D,A,]2 | [D,D]4 [D,D][D,D] | [G,DG]2 [G,B,]2 [G,DG]2 |[M:2/4] [G,D]4 | %12
[M:1/4] [G,D][K:treble][G,DG] |[M:3/4] [A,DF]2[K:bass] [A,D]2 [A,,F,]2 | [A,,E,]2 A,,2 A,,2 | %15
[M:2/4] D,4 |[M:6/8] A2 D, F,A,[K:treble]D | A=A[K:bass]G,, B,,D,G, | %18
 BB[K:bass][E,B,] [E,B,][E,B,][E,B,] | z2 A,, C,E,A, | z[K:treble] c[K:bass]D, F,A,[K:treble]D | %21
 cB[K:bass]D, A,F,D, | D,D,A,, C,E,A, |[M:5/8] A,,A,, D,3- | D,2 z z2 |] %25
V:3
 x6 | x6 | x6 | x6 | x6 | x6 | x6 | x6 | x6 | x6 | x6 |[M:2/4] x4 |[M:1/4] x2 |[M:3/4] x6 | %14
 x4[K:bass] x2 |[M:2/4] x4 |[M:6/8] z2[K:treble] [DF] [DF][DF]F | z2 [DG] [DG][DG][DG] | %18
 z2 =G GGG | B_c[EA] [EA][EA][EA] | z2 [DF] [DF][DF]F | z2 [DF] [DF][DF][DF] | %22
 [A,DF][A,DF][A,C] [A,C][A,C]C |[M:5/8] x[K:bass] x4 | x5 |] %25

